PortfolioPage/projects/2d/unageo/unageo_art-1.svg

<svg xmlns="http://www.w3.org/2000/svg" width="560" height="280" fill="none" viewBox="0 0 560 280">
  <g clip-path="url(#a)">
    <path fill="#080808" d="M560 0H0v280h560V0Z"/>
    <path fill="#0D0D0D" d="M-.00003052 0v280.855H442.559c4.221-22.015 7.821-45.186 7.574-66.783-.518-45.256-17.581-83.357-27.215-116.7938C413.602 64.9473 411.277 36.7932 410.531 0H-.00003052Z"/>
    <path fill="#121212" d="M0 0v280.855h299.102c6.033-31.258 15.87-62.531 18.638-88.235 4.051-37.608-7.606-63.351-17.652-96.135C291.406 68.1518 283.989 34.5542 288.824 0H0Z"/>
    <path fill="#171717" d="M0 0v280.855h209.795c2.388-23.865.338-44.568-7.529-66.783-11.216-31.67-34.046-66.561-23.537-111.232 7.756-32.972 33.59-71.2259 46.664-102.84H0Z"/>
    <path fill="#1C1C1C" d="M0 0v280.855h102.768c-15.5266-28.994-32.5107-60.488-35.8363-86.647-5.321-41.854 24.8341-69.181 27.2128-102.4911C96.2208 62.6423 77.1476 29.0146 71.4277 0H0Z"/>
    <path fill="#0095FF" d="M98.1631 80.2778v66.1182c0 15.79 4.7449 28.768 14.2359 38.933 9.491 10.166 21.119 15.249 34.884 15.249s25.393-5.083 34.883-15.249c9.491-10.165 14.236-23.143 14.236-38.933v-26.953h-55.636v26.11h29.526v.843c0 8.647-2.179 15.488-6.538 20.521-4.358 5.034-9.849 7.551-16.471 7.551-6.623 0-12.113-2.517-16.472-7.551-4.359-5.033-6.538-11.874-6.538-20.521V80.2778H98.1631Z"/>
    <path fill="#007EFF" d="M98.1631 80.2778v66.1182c0 15.79 4.7449 28.768 14.2359 38.933 9.491 10.166 21.119 15.249 34.884 15.249 22.551-2.359 18.14-26.851 0-26.11-6.623 0-12.113-2.517-16.472-7.551-4.359-5.033-6.538-11.874-6.538-20.521V80.2778H98.1631Z"/>
    <path fill="#0068FF" d="M98.1631 80.2778v49.2462c0 21.846 26.1099 21.687 26.1099 0V80.2778H98.1631Z"/>
    <path fill="#00ACFF" d="M181.639 109.804c8.154 0 14.763-6.609 14.763-14.7629 0-8.1535-6.609-14.7633-14.763-14.7633s-14.763 6.6098-14.763 14.7633c0 8.1539 6.609 14.7629 14.763 14.7629Z"/>
  </g>
  <defs>
    <clipPath id="a">
      <path fill="#fff" d="M0 0h560v280H0z"/>
    </clipPath>
  </defs>
</svg>

<?xml version="1.0" encoding="UTF-8" standalone="no"?>
<svg
   width="560"
   height="280"
   viewBox="0 0 560 280"
   fill="none"
   version="1.1"
   id="svg31"
   sodipodi:docname="unageo_art 1.svg"
   inkscape:version="1.2 (dc2aedaf03, 2022-05-15)"
   xmlns:inkscape="http://www.inkscape.org/namespaces/inkscape"
   xmlns:sodipodi="http://sodipodi.sourceforge.net/DTD/sodipodi-0.dtd"
   xmlns="http://www.w3.org/2000/svg"
   xmlns:svg="http://www.w3.org/2000/svg">
  <sodipodi:namedview
     id="namedview33"
     pagecolor="#505050"
     bordercolor="#eeeeee"
     borderopacity="1"
     inkscape:showpageshadow="0"
     inkscape:pageopacity="0"
     inkscape:pagecheckerboard="0"
     inkscape:deskcolor="#505050"
     showgrid="false"
     inkscape:zoom="1.0678571"
     inkscape:cx="229.43145"
     inkscape:cy="141.40469"
     inkscape:window-width="1920"
     inkscape:window-height="1009"
     inkscape:window-x="-8"
     inkscape:window-y="-8"
     inkscape:window-maximized="1"
     inkscape:current-layer="svg31" />
  <g
     clip-path="url(#clip0_1_2)"
     id="g24">
    <path
       d="M560 0H0V280H560V0Z"
       fill="#080808"
       id="path2" />
    <path
       d="M-3.05176e-05 0V280.855H442.559C446.78 258.84 450.38 235.669 450.133 214.072C449.615 168.816 432.552 130.715 422.918 97.2782C413.602 64.9473 411.277 36.7932 410.531 0H-3.05176e-05Z"
       fill="#0D0D0D"
       id="path4" />
    <path
       d="M0 0V280.855H299.102C305.135 249.597 314.972 218.324 317.74 192.62C321.791 155.012 310.134 129.269 300.088 96.485C291.406 68.1518 283.989 34.5542 288.824 0H0Z"
       fill="#121212"
       id="path6" />
    <path
       d="M0 0V280.855H209.795C212.183 256.99 210.133 236.287 202.266 214.072C191.05 182.402 168.22 147.511 178.729 102.84C186.485 69.868 212.319 31.6141 225.393 0H0Z"
       fill="#171717"
       id="path8" />
    <path
       d="M0 0V280.855H102.768C87.2414 251.861 70.2573 220.367 66.9317 194.208C61.6107 152.354 91.7658 125.027 94.1445 91.7169C96.2208 62.6423 77.1476 29.0146 71.4277 0H0Z"
       fill="#1C1C1C"
       id="path10" />
    <path
       d="M98.1631 80.2778V146.396C98.1631 162.186 102.908 175.164 112.399 185.329C121.89 195.495 133.518 200.578 147.283 200.578C161.048 200.578 172.676 195.495 182.166 185.329C191.657 175.164 196.402 162.186 196.402 146.396V119.443H170.292H140.766V145.553H170.292V146.396C170.292 155.043 168.113 161.884 163.754 166.917C159.396 171.951 153.905 174.468 147.283 174.468C140.66 174.468 135.17 171.951 130.811 166.917C126.452 161.884 124.273 155.043 124.273 146.396V80.2778H98.1631Z"
       fill="#0095FF"
       id="path12" />
    <path
       d="M98.1631 80.2778V146.396C98.1631 162.186 102.908 175.164 112.399 185.329C121.89 195.495 133.518 200.578 147.283 200.578C169.834 198.219 165.423 173.727 147.283 174.468C140.66 174.468 135.17 171.951 130.811 166.917C126.452 161.884 124.273 155.043 124.273 146.396V80.2778H98.1631Z"
       fill="#007EFF"
       id="path14" />
    <path
       d="M98.1631 80.2778V129.524C98.1631 151.37 124.273 151.211 124.273 129.524V80.2778H98.1631Z"
       fill="#0068FF"
       id="path16" />
    <path
       d="M181.639 109.804C189.793 109.804 196.402 103.195 196.402 95.0411C196.402 86.8876 189.793 80.2778 181.639 80.2778C173.485 80.2778 166.876 86.8876 166.876 95.0411C166.876 103.195 173.485 109.804 181.639 109.804Z"
       fill="#00ACFF"
       id="path18" />
  </g>
  <defs
     id="defs29">
    <clipPath
       id="clip0_1_2">
      <rect
         width="560"
         height="280"
         fill="white"
         id="rect26" />
    </clipPath>
  </defs>
  
</svg>
